packages/core/src/svgs/tokens/mono/AUCTION.svg

<svg width="24" height="24" viewBox="0 0 24 24" fill="none" xmlns="http://www.w3.org/2000/svg">
<path d="M5.125 3.25001C5.125 2.56251 5.70001 2 6.41251 2H10.7125C11.4249 2 12 2.56251 12 3.25001C12 3.9375 11.4249 4.50001 10.7125 4.50001H6.41251C5.70001 4.50001 5.125 3.9375 5.125 3.25001ZM18.7938 4.48751C18.8509 4.64247 18.8766 4.80732 18.869 4.97233C18.8614 5.13734 18.821 5.29917 18.7499 5.4483C18.6788 5.59742 18.5787 5.7308 18.4553 5.84058C18.3318 5.95035 18.1877 6.03432 18.0312 6.08751L6.8625 10.0813C6.54397 10.1979 6.19247 10.1853 5.88304 10.0465C5.5736 9.9075 5.33073 9.65302 5.20626 9.33758C5.14908 9.18256 5.1235 9.01769 5.13102 8.85268C5.13855 8.68766 5.17905 8.52583 5.25011 8.37671C5.32118 8.2276 5.42136 8.09422 5.5448 7.98444C5.66822 7.87465 5.81237 7.7907 5.96876 7.73751L17.1375 3.74376C17.456 3.62714 17.8075 3.63965 18.1169 3.7786C18.4264 3.91755 18.6694 4.17196 18.7938 4.48751ZM18.7938 14.6625C18.8509 14.8174 18.8766 14.9824 18.869 15.1473C18.8614 15.3124 18.821 15.4742 18.7499 15.6233C18.6788 15.7725 18.5787 15.9058 18.4553 16.0156C18.3318 16.1254 18.1877 16.2092 18.0312 16.2625L6.8625 20.2563C6.54397 20.3729 6.19247 20.3604 5.88304 20.2214C5.5736 20.0824 5.33073 19.8281 5.20626 19.5125C5.14908 19.3575 5.1235 19.1927 5.13102 19.0276C5.13855 18.8627 5.17905 18.7008 5.25011 18.5518C5.32118 18.4026 5.42136 18.2693 5.5448 18.1595C5.66822 18.0497 5.81237 17.9657 5.96876 17.9126L17.1375 13.9188C17.456 13.8021 17.8075 13.8147 18.1169 13.9536C18.4264 14.0926 18.6694 14.347 18.7938 14.6625ZM12 20.7501C12 20.0625 12.575 19.5 13.2875 19.5H17.5876C18.3 19.5 18.875 20.0625 18.875 20.7501C18.875 21.4375 18.3 22 17.5876 22H13.2875C12.575 22 12 21.4375 12 20.7501ZM18.7875 9.46883C18.8473 9.62283 18.8754 9.78733 18.8706 9.95256C18.8657 10.1178 18.8277 10.2804 18.7591 10.4306C18.6902 10.581 18.5921 10.716 18.4703 10.8277C18.3485 10.9394 18.2056 11.0256 18.05 11.0813L6.875 15.25C6.55883 15.37 6.20838 15.362 5.89799 15.2278C5.5876 15.0936 5.34171 14.8438 5.2125 14.5313C5.15278 14.3771 5.12455 14.2126 5.12943 14.0474C5.13433 13.8822 5.17228 13.7197 5.24101 13.5694C5.30976 13.4192 5.4079 13.2841 5.52967 13.1723C5.65144 13.0606 5.79438 12.9744 5.95001 12.9188L17.125 8.75C17.7875 8.5 18.5313 8.825 18.7875 9.46883Z" fill="white"/>
</svg>

<svg xmlns="http://www.w3.org/2000/svg" width="24" height="24" fill="none" viewBox="0 0 24 24">
    <path fill="#fff" d="M5.125 3.25C5.125 2.563 5.7 2 6.413 2h4.3C11.425 2 12 2.563 12 3.25s-.575 1.25-1.287 1.25h-4.3c-.713 0-1.288-.562-1.288-1.25m13.669 1.238a1.24 1.24 0 0 1-.763 1.6L6.863 10.08a1.3 1.3 0 0 1-1.657-.743 1.24 1.24 0 0 1 .763-1.6l11.168-3.994a1.3 1.3 0 0 1 1.657.744m0 10.174a1.24 1.24 0 0 1-.763 1.6L6.863 20.257a1.3 1.3 0 0 1-1.657-.744 1.24 1.24 0 0 1 .763-1.6l11.168-3.993a1.3 1.3 0 0 1 1.657.743M12 20.75c0-.687.575-1.25 1.287-1.25h4.3c.713 0 1.288.563 1.288 1.25S18.3 22 17.588 22h-4.3C12.575 22 12 21.438 12 20.75m6.788-11.28a1.237 1.237 0 0 1-.738 1.612L6.875 15.25a1.3 1.3 0 0 1-1.662-.719 1.24 1.24 0 0 1 .737-1.612L17.125 8.75a1.3 1.3 0 0 1 1.663.719"/>
</svg>
